X:1
T:Title
%%score 1 ( 2 3 )
L:1/8
Q:1/4=105
M:4/4
K:A
V:1 treble nm="Grand Piano, Soprano"
V:2 bass nm="Choir Pad, Do Not Pass Me By"
V:3 bass 
V:1
 [CE][A,C][CE][CA] [Ec]2 [CA]2 | [DB]4 [DF]4 | [DG][DG][DG][DG] [DF]2 [DE]2 | [Ec]6 z2 | %4
w: By~Peter~Philip~Bilhorn * * * * *||||
 [CE][A,C][CE][CA] [Ec]2 [CA]2 | [DB]4 [Fd]4 | [Ec][Ec][Ec][Fd] [Ec]2 [DB]2 | [CA]6 z2 | %8
w: ||||
 [Ec]4 [CA]4 | [Fd]4 [Ec]4 | [DB][DF][DG][EA] [EB]2 [^Dc]2 | [EB]6 z2 | [Ec]4 [CA]4 | [Fd]4 [Ec]4 | %14
w: ||||||
 [DB][DF][DG][Fd] [Ec]2 [DB]2 | [CA]8 |] %16
w: ||
V:2
 [A,,A,][A,,E,][A,,A,][A,,E,] [A,,A,]2 [A,,A,]2 | [D,F,]4 [D,B,]4 | %2
 [E,B,][E,B,][E,B,][E,B,] [E,A,]2 [E,G,]2 | [A,,A,]6 z2 | %4
 [A,,A,][A,,E,][A,,A,][A,,E,] [A,,A,]2 [A,,A,]2 | [D,F,]4 [B,,B,]4 | %6
 [E,A,][E,A,][E,A,][E,B,] [E,A,]2 [E,G,]2 | [A,,A,]6 z2 | [A,,A,]2 [A,,A,]2 [A,,A,]2 [A,,A,]2 | %9
 A,2 A,2 z4 | [D,A,][D,A,][D,B,][D,A,] [B,,G,]2 [B,,A,]2 | G,6 z2 | %12
 [A,,A,]2 [A,,A,]2 [A,,A,]2 [A,,A,]2 | A,2 A,2 z4 | [D,A,][D,A,][B,,B,][B,,B,] [E,A,]2 [E,G,]2 | %15
 [A,,A,]8 |] %16
V:3
 x8 | x8 | x8 | x8 | x8 | x8 | x8 | x8 | x8 | D,E,F,G, A,2 [A,,A,]2 | x8 | E,2 D,2 C,2 B,,2 | x8 | %13
 D,E,F,G, A,2 [A,,A,]2 | x8 | x8 |] %16

